X: 32411
T: Piper's Despair, The
R: reel
M: 4/4
K: Edorian
E2GA BAFA|B2ce dBAF|D2AB AD2E|FABe dBAF|
EFGA BAFA|B2ce dBAF|DEFA defa|gef^d Be 3^def|
|:e2ga bgaf|e2ga bgaf|1 d2ed a2fe|
^def^d e^dB^d:|2 d2ed a2fa|gef^d Be 3^def||

